assets/images/bg-octa.svg

<svg fill="none" height="448" viewBox="0 0 448 448" width="448" xmlns="http://www.w3.org/2000/svg"><path clip-rule="evenodd" d="m189.695 14.3458-123.671 50.8459-35.0976 84.1073 94.5736 111.043 97.934-194.3612zm-189.695 209.0652 28.7802-68.969 94.2938 110.714-58.3222 115.749zm68.9799 160.144 57.5901-114.294 42.541 49.949-54.516 83.38zm50.2791 20.981 53.21-81.383 91.965 107.979-41.023 16.866zm56.045-85.718 93.964 110.327 67.678-27.825 45.979-91.252-100.919-154.448zm210.763-3.943-42.104 83.56 38.011-15.628 18.895-45.278zm2.584-5.128 51.961-103.124 7.386 17.965-44.816 107.397zm49.461-109.205-52.603 104.397-100.534-153.859 64.661-98.8978 33.171 13.8418zm-309.116 63.904 42.949 50.429 107.094-163.796-52.463-80.2907zm153.011-117.907-52.847-80.8793 26.542-52.6759 89.27 37.2521zm-55.989-85.6868-31.645-48.4299 30.215-12.4223 26.517 11.0654z" fill="#2a4365" fill-opacity=".2" fill-rule="evenodd"/></svg>

<svg width="448" height="448" viewBox="0 0 448 448" fill="none" xmlns="http://www.w3.org/2000/svg">
<path fill-rule="evenodd" clip-rule="evenodd" d="M189.695 14.3458L66.024 65.1917L30.9264 149.299L125.5 260.342L223.434 65.9808L189.695 14.3458ZM0 223.411L28.7802 154.442L123.074 265.156L64.7518 380.905L0 223.411ZM68.9799 383.555L126.57 269.261L169.111 319.21L114.595 402.59L68.9799 383.555ZM119.259 404.536L172.469 323.153L264.434 431.132L223.411 447.998L119.259 404.536ZM175.304 318.818L269.268 429.145L336.946 401.32L382.925 310.068L282.006 155.62L175.304 318.818ZM386.067 314.875L343.963 398.435L381.974 382.807L400.869 337.529L386.067 314.875ZM388.651 309.747L440.612 206.623L447.998 224.588L403.182 331.985L388.651 309.747ZM438.112 200.542L385.509 304.939L284.975 151.08L349.636 52.1822L382.807 66.024L438.112 200.542ZM128.996 264.446L171.945 314.875L279.039 151.079L226.576 70.7883L128.996 264.446ZM282.007 146.539L229.16 65.6597L255.702 12.9838L344.972 50.2359L282.007 146.539ZM226.018 60.8522L194.373 12.4223L224.588 0L251.105 11.0654L226.018 60.8522Z" fill="#2A4365" fill-opacity="0.2"/>
</svg>
